mobile/24/svg/avatar-info-circle-fill-24.svg

<svg width="24" height="24" fill="none" xmlns="http://www.w3.org/2000/svg"><path fill-rule="evenodd" clip-rule="evenodd" d="M1 11C1 5.486 5.486 1 11 1s10 4.486 10 10c0 .631-.066 1.246-.178 1.845a6.464 6.464 0 0 0-2.072-.345 6.47 6.47 0 0 0-4.149 1.502v-.001l.002-.001H7.25a2.492 2.492 0 0 0-2.369 1.738A7.732 7.732 0 0 0 11 18.75c.434 0 .855-.048 1.269-.117a9.483 9.483 0 0 1-.007.107 3.72 3.72 0 0 0-.012.26 6.5 6.5 0 0 0 .277 1.871A9.976 9.976 0 0 1 11 21C5.486 21 1 16.514 1 11zm7.103-1.201a2.967 2.967 0 0 0 2.098 2.098A3.006 3.006 0 0 0 14 9a3 3 0 0 0-3-3 3.006 3.006 0 0 0-2.897 3.799z" fill="#000"/><path fill-rule="evenodd" clip-rule="evenodd" d="M18.75 24c-2.757 0-5-2.243-5-5s2.243-5 5-5 5 2.243 5 5-2.243 5-5 5zm.75-8v1.5H18V16h1.5zm0 2.75V22H18v-3.25h1.5z" fill="#000"/></svg>

<svg width="24" height="24" viewBox="0 0 24 24" fill="none" xmlns="http://www.w3.org/2000/svg">
<path fill-rule="evenodd" clip-rule="evenodd" d="M1 11C1 5.486 5.486 1 11 1C16.514 1 21 5.486 21 11C21 11.631 20.934 12.246 20.822 12.845C20.17 12.625 19.475 12.5 18.75 12.5C17.174 12.5 15.728 13.065 14.601 14.002L14.6018 14.0009L14.603 14H7.25C6.137 14 5.204 14.733 4.881 15.738C6.3 17.567 8.512 18.75 11 18.75C11.434 18.75 11.855 18.702 12.269 18.633C12.2669 18.6688 12.2645 18.7045 12.262 18.7402C12.256 18.8263 12.25 18.9124 12.25 19C12.25 19.65 12.349 20.278 12.527 20.871C12.028 20.948 11.521 21 11 21C5.486 21 1 16.514 1 11ZM8.103 9.799C8.364 10.81 9.191 11.636 10.201 11.897C12.202 12.414 14 10.917 14 9C14 7.343 12.657 6 11 6C9.083 6 7.586 7.798 8.103 9.799Z" fill="black"/>
<path fill-rule="evenodd" clip-rule="evenodd" d="M18.75 24C15.993 24 13.75 21.757 13.75 19C13.75 16.243 15.993 14 18.75 14C21.507 14 23.75 16.243 23.75 19C23.75 21.757 21.507 24 18.75 24ZM19.5 16V17.5H18V16H19.5ZM19.5 18.75V22H18V18.75H19.5Z" fill="black"/>
</svg>
